X: 25
T:Y Cudyn
T:The Ringlet Waltz
M:3/4
L:1/8
Q:200
C:John Hart, Merthyr Tydfil
R:Waltz
A:Wales
H:c 1860
Z:brian_martin12345@yahoo.com
K:A
c6|A,C EA ce|a4c'2|b4e'2|c6|A,C EA ce|a4g2|a4g2|f2 {g}f^efg|
a2g2f2|e2gfc2|edc2B2|A2a2g2|a2c'3b|b6|1a6:||2a4c'2||
b3a gf|e3d cB|A3G AB|A4f2|e4f2|e4c'2|b4c'2|b4e'2|
b3a gf|e3d cB|A3G AB|A4f2|e3f e^d|e2d'2c'2|c'4b2|a6:||

